T: Maggie's Lilt
M: 4/4
L: 1/8
K: Dmaj
|:B|(3ABA BA f2 f2|(3ABA BA f2 f2|gfed c2 d2|(3efe (3dcB (3ABA FG|    (AABA f2 f2|AABA f4|gfed cABc|e2 d2 d3:| |:f|aaba f2 f2|aaba f2 f2|gfed c2 d2|(3efe (3dcB A2 fg|    a2 ba f2 f2|a2 ba f2 f2|gfed cABc|(3efe (e2 d2 d3:|
